X:1
T:Violin concerto no. 1 in A minor
T:Violin concerto no. 1 in A minor 
T:BWV 1041
T:J. S. Bach
C:J. S. Bach
%%score { ( 1 4 ) | ( 2 3 ) }
L:1/8
Q:1/4=100
M:2/4
K:C
V:1 treble nm="钢琴" snm="Pno."
V:4 treble 
V:2 bass 
V:3 bass 
V:1
"^Allegro moderato" x!f! e | a2 z e | f2 z d | e/d/c/e/ d/c/B/d/ | cA z/ (A/^G/A/) | %5
 B/(A/^G/A/) c/(A/G/A/) | d/(A/^G/A/) e/(A/G/A/) | (f/g/f/)e/ d/c/B/A/ | ^GE b2- | ba/^g/ ac'- | %10
 c'^f a2- | ag/^f/ gb- | b/a/g/^f/ e2- | e^f/g/ ac | Ba gB | (A/B/c/)B/ A/G/^F/E/ | ^Dc Be | %17
({e^f)} g2 Tf2- | f/g/a/^f/ (^d/e/f/)d/ | be ^f^d | e/d/c/B/ AA | A/B/c- c/B/A/G/ | %22
 ^F/G/A- A/G/F/E/ | ^DB TG^F/E/ |"^A" E2!mp! z/"^Solo" (e/d/e/) | a/^g/a- a/(e/d/e/) | %26
 (c'b-) b/(e/d/e/) | b/a/b- b/(e/d/e/) | (d'c'-) c'/(e/d/e/) | (c'/b/a/)g/ f/d/c/d/ | %30
 (b/a/g/)f/ e/c/B/c/ | (a/g/f/)e/ d/B/A/B/ | ([^G^g]/[Aa]/[Gg]/)[^F^f]/ [Ee]/[Dd]/[Cc]/[B,B]/ | %33
 c/d/c/B/ A/a/e/g/ | (f/g/f/)e/ d/c/B/A/ | B/c/B/A/ G/g/d/f/ | (e/f/e/)d/ c/B/A/G/ | %37
 A/^A/=A/G/ F/f/c/e/ | (d/e/d/)c/ B/A/^G/^F/ | ^G/A/G/^F/ E/e/B/d/ | (c/d/c/)B/ A/a/e/g/ | %41
 (f/g/f/)e/ d/f/B/d/ | e/d/c/e/ d/c/B/d/ | (cA) z/!mp! E/A/c/ |"^B" (f/4g/4a)f/ (^d/4e/4^f)d/ | %45
 e/B/G/(E/ ^D/E/)G/B/ | (e/4f/4g)e/ (^c/4d/4e)c/ | d/A/F/(D/ ^C/D/)F/A/ | (d/4e/4f)d/ (B/4c/4d)B/ | %49
!<(! c/G/A/B/ c/G/d/G/ | e/B/c/d/ e/c/^f/c/ | g/G/B/d/!<)!!f! ([Gg]2 | g/)c/e/g/ ([cc']2 | %53
 c'/)c/f/a/ [cc']2- | [cc']/d/c/e/ [dd']/c/B/d/ | [cc']/[Gg]/[Ee]/[Cc]/ C/(c/B/c/) | %56
"^C"!mf! d/(c/B/c/) e/(c/B/c/) | f/(c/B/c/) g/(c/B/c/) | (a/^a/=a/)g/ f/e/d/c/ | BG b2- | %60
 ba/^g/ ac'- | c'^f/g/ (a/f/)(g/e/) | ^f/(d/^c/d/) f/d/a/f/ | d'd a2- | ag/^f/ gb- | %65
 be/^f/ (g/e/)(f/^d/) | e/(c/B/c/) e/c/g/e/ | c'c g2- | g^f/g/ ac | Ba gB | A/B/c/B/ A/G/^F/E/ | %71
 [^D^d][cc'] [Bb][ee'] |!8va(! [gg']2 ((T[^f^f']2!8va)! |!p! ^f/)g/a/)g/ f/a/e/a/ | %74
 (^d/e/^f/)e/ d/f/c/f/ | (A/B/c/)B/ A/c/G/c/ | (^F/G/A/)G/ F/A/E/A/ |!<(! ^D/A/B/^c/ ^d/e/^f/g/ | %78
 a/B/^c/^d/ e/^f/g/a/!<)! |!f! be ^f^d | e/d/c/B/ AA | A/B/c- c/B/A/G/ | ^F/G/A- A/G/F/E/ | %83
 ^DB TG^F/E/ | E2 z/!mp! (B/A/B/) |"^E" e/^d/e- e/(B/A/B/) | g^f- f/(B/A/B/) | ^f/e/f- f/(B/A/B/) | %88
 ag- g/(e/^d/e/) | .[^f^f']/(e/^d/e/) .[^g^g']/(e/d/e/) | .[aa']/(e/^d/e/) [bb']/(e/d/e/) | %91
 .[cc']/(A/^G/A/) .[^c^c']/(A/G/A/) | .[dd']/(A/^G/A/) .[ee']/(A/G/A/) | %93
 .[Ff]/(D/^C/D/) .[^F^f]/(D/C/D/) | .[Gg]/(D/^C/D/) .[Aa]/(D/C/D/) | %95
 [Bb]/(G/^F/G/) .[Bb]/(G/F/G/) |!mf! .[cc']/(G/^F/G/) .[dd']/(G/F/G/) | %97
 .[ee']/(c/B/c/) .[ee']/(c/B/c/) | .[ff']/(c/B/c/) .[gg']/(c/B/c/) | %99
 ([aa']/[^a^a']/[=a=a']/)[gg']/ [ff']/[ee']/[dd']/[cc']/ | %100
 ([^A^a]/[=A=a]/[^A^a]/)[=aa']/ [gg']/[ff']/[ee']/[dd']/ | %101
 ([^c^c']/[dd']/[cc']/)[Bb]/ [Aa]/[Gg]/!f![Ff]/[Ee]/ |"^F" [Ff]/[Aa]/[dd']/[ff']/ ([aa']2 | %103
 [aa']/)[gg']/[ff']/[aa']/ [gg']/[ff']/[ee']/[gg']/ | %104
 [ff']/[ee']/[dd']/[ff']/ [ee']/[dd']/[^c^c']/[ee']/ | [dd']2 z/!mp!!<(! (d/^c/d/) | %106
 .[ee']/(d/^c/d/) .[ff']/(d/c/d/) | .[gg']/(d/^c/d/) .[aa']/(d/c/d/)!<)! |!f!!>(! [^a^a']4-!>)! | %109
!mp!!<(! [aa']/(c/B/c/) .[ee']/(c/B/c/) | .[ff']/(c/B/c/) .[gg']/(c/B/c/)!<)! |!f!!>(! (a4!>)! | %112
!mp!!<(! a/)(d/e/^f/ g/a/^a/c'/ | d'/c'/^a/=a/ g/^f/e/d/)!<)! |!f! (g4 | %115
!p! g/)(e/f/g/ a/b/^c'/d'/ | e/d'/c'/b/ a/g/f/e/) | f/d'/(f/e/ f/)a/d'/c'/ | b/f/c'/f/ d'/f/b/f/ | %119
 e/c'/(e/d/ e/)g/c'/b/ | a/e/b/e/ c'/e/a/e/ | d/b/(d/c/ d/)f/b/a/ | ^g/d/a/d/ b/d/g/d/ | %123
 c/a/(c/B/ c/)e/a/e/ | f/a/(d/c/ d/)f/a/B/ | [cc'][aa'] [Bb][^g^g'] | [ac'e'a']2 z/ (A/^G/A/) | %127
"^G" [cc']/(A/^G/A/) [^c^c']/(A/G/A/) | [dd']/(A/^G/A/) [ee']/(A/G/A/) | %129
 [ff']/(D/^C/D/) [^F^f]/(D/C/D/) | [Gg]/(D/^C/D/) [Aa]/(D/C/D/) | [^A^a]/(G/^F/G/) [Bb]/(G/F/G/) | %132
 [cc']/(G/^F/G/) [dd']/(G/F/G/) | [^d^d']/(c/B/c/) [ee']/(c/B/c/) | [ff']/(c/B/c/) [gg']/(c/B/c/) | %135
!f! (^g/4b/4c')g/ (^f/4=g/4a)f/ | g/d/^A/(G/ ^F/G/)A/d/ | (^d/4f/4g)d/ (^c/4=d/4e)c/ | %138
!mf! d/A/F/(D/ ^C/D/)F/A/ | (^A/4c/4d)A/ (^G/4=A/4B)G/ |!mp! A/E/^F/^G/ A/E/B/E/ | %141
 c/^G/A/B/ c/A/d/A/ | ^G/E/G/B/!f! e2- | e/A/c/e/ [Aa]2 | a/A/d/f/ [Aa]2 | [Aa]A [Ee][^G^g] | %146
"^H" [Aa] z (e2 | e)d/^c/ d(f | f)B/c/ d/B/c/A/ | (B/G/^F/G/) B/G/d/B/ | gG (d2 | d)c/B/ c(e | %152
 e)A/B/ c/A/B/^G/ | A/(F/E/F/) A/F/c/A/ | fF (c2 | c)B/c/ dF | [Ee][dd'] [cc'][Ee] | %157
 D/(c/B/A/) (B/A/^G/^F/) | ^Gf ea |{ab} c'2 (Tb2 |!p! b/)c'/d'/c'/ b/d'/a/d'/ | %161
 (^g/a/b/)a/ g/b/f/b/ | (d/e/f/)e/ d/f/c/f/ | (B/c/d/)c/ B/d/A/d/ |!<(! ^G/d/E/^F/ G/A/B/c/ | %165
 d/e/^f/^g/ a/b/c'/b/!<)! |!f! c'a b^g | a/g/f/e/ dd | d/e/f- f/e/d/c/ | B/c/d- d/c/B/A/ | %170
 ^Ge TcB/A/ | !fermata![Aa]3 z |] %172
V:2
 z C | z .A,, .A, z | z .A,, .A, z | C/B,/A,/C/ B,/A,/^G,/B,/ | (A,,A,/B,/ CA,) | ^G,E,A,E, | %6
 B,E,CE, | A,[A,D] ^G,([A,D] | D/)E/D/C/ B,/A,/^G,/^F,/ | E,/D/C/B,/ A,/G,/F,/E,/ | %10
 ^F,/D/C/B,/ A,/G,/F,/E,/ | D,/C/B,/A,/ G,/^F,/E,/^D,/ | E,/C/B,/A,/ G,/^F,/E,/D,/ | %13
 A,/B,/A,/G,/ ^F,/G,/F,/E,/ | ^D,/B,,/^C,/D,/ E,/^F,/G,/E,/ | E,^D, E,C | %16
 (B,,3/2^C,/4^D,/4) E,/^F,/G,/A,/ | B,A,B,B,, | A,G,A,A,, | EG, A,^F, | E,E/D/ C/B,/A,/G,/ | %21
 ^F,/E,/^D,/E,/ F,/G,/A,/B,/ | C/B,/A,/G,/ ^F,/E,/^D,/E,/ | A,/^F,/G,/E,/ B,,^D, | %24
 E,,E,/D,/ C,B,, | z [CE]/[B,D]/ [CE]2 | z [G,B,]/[A,C]/ [B,D] z | z [^G,D]/C/ [G,D]2 | %28
 z [CE]/D/ [A,E] z | z [E,G,] z [F,A,] | z [G,B,] z [A,C] | z [A,C] z [B,D] | %32
 [^G,,^G,]/[A,,A,]/[G,,G,]/[^F,,^F,]/ [E,,E,]/[D,,D,]/[C,,C,]/[B,,,B,,]/ | %33
 z [F,A,]/[E,G,]/ [F,A,][G,B,] | z [D,F,]/[E,G,]/ [D,D]/[C,C]/[B,,B,]/[A,,A,]/ | %35
 z [E,G,]/[D,F,]/ [E,G,][F,A,] | z [C,E,]/[D,F,]/ [C,C]/[B,,B,]/[A,,A,]/[G,,G,]/ | %37
 z [F,A,]/[E,G,]/ [F,A,][E,G,] | z [B,,D,]/[C,E,]/ [B,,B,]/[A,,A,]/[^G,,^G,]/[^F,,^F,]/ | %39
 z [E,^G,]/[D,^F,]/ [E,G,][F,A,] | z [C,E,]/[D,F,]/ [F,A,][G,B,] | z [D,F,]/[E,G,]/ [F,A,][^G,B,] | %42
 z [F,A,]/[A,C]/ [G,B,][E,^G,] | [C,E,][A,,C,] z A, | A,,/A,/F,/A,/ ^F,,/^F,/D,/F,/ | %45
 E/B,/G,/E,/ ^D,/E,/G,/B,/ | G,,/G,/E,/G,/ E,,/D,/B,,/D,/ | D/A,/F,/D,/ ^C,/D,/F,/A,/ | %48
 F,,/F,/D,/F,/ E,,/F,/D,/F,/ | %49
 [E,,E,]/[E,,E,]/[D,,D,]/[D,,D,]/ [C,,C,]/[C,,C,]/[B,,,B,,]/[B,,,B,,]/ | %50
 [D,,D,]/[D,,D,]/[C,,C,]/[C,,C,]/ [_B,,,_B,,]/[B,,,B,,]/[A,,,A,,]/[A,,,A,,]/ | %51
 [B,,,B,,] z z [G,D] | [EG]2 z E | [CF]2 z D | ([E,E]/D/C/E/) ([D,D]/C/B,/D/) | [C,C][E,,E,] z E, | %56
 [D,D]/E,/G,/E,/ [E,E]/E,/C,/E,/ | [F,F]/E,/G,/E,/ [G,G]/E,/C,/E,/ | A,/^A,/=A,/G,/ A,/E,/F,/C,/ | %59
 (B,/C/D/)C/ B,/A,/G,/F,/ | E,/D/C/B,/ A,/G,/^F,/E,/ | [D,D][^F,^F] z2 | z4 | %63
 z ^F,/E,/ D,/C,/B,,/A,,/ | D,/C/B,/A,/ G,/F,/E,/D,/ | [C,C][E,E] z2 | z4 | z C/B,/ A,/G,/F,/E,/ | %68
 D,/C/B,/A,/ G,/F,/E,/D,/ | ^F,A, B,(C, | E,)^D, E,^F, | [^F,,^F,][A,,A,] [G,,G,][C,C] | %72
 !arpeggio![B,,G,A,G]2 [B,,B,-]2 | [B,,B,]2 z2 | !arpeggio![B,,^F,C^F]2 z2 | %75
 !arpeggio![F,,B,,A,^D]2 z2 | !arpeggio![A,,^F,B,^F]2 z2 | [G,,^D,A,^D]4 | %78
 A,/B,,/^C,/^D,/ E,/^F,/G,/A,/ | [B,,B,][G,,G,] [A,,A,][^F,,^F,] | E,/D,/C,/B,,/ A,,/A,,/A,,/A,,/ | %81
 ^D,D, D,^F, | ^D,A,/G,/ ^F,/E,/D,/E,/ | [A,,A,][B,,B,] [B,,B,][B,,B,] | [E,,C,E,]2 z2 | %85
 z [B,,B,]/[G,,G,]/ [B,,B,]2 | z [B,,B,]/[^C,^C]/[^D,^D] z | z [A,,A,]/[^F,,^F,]/ [A,,A,]2 | %88
 z [G,,G,]/[A,,A,]/[B,,B,] z | [A,,A,]/E,,/^D,/E/ [B,,B,]/E,,/D,/E/ | %90
 [C,C]/E,,/^D,/E/ [^D,^D]/E,,/D,/E/ | [E,E]/A,,,/^G,,/A,/ [=G,,G,]/A,,,/^G,,/A,/ | %92
 [F,,F,]/A,,,/^G,,/A,/ [=G,,G,]/A,,,/^G,,/A,/ | [A,,A,]/D,,/^G,,/D,/ [C,C]/D,,/G,,/D,/ | %94
 [B,,B,]/D,,/^G,,/D,/ [D,D]/D,,/G,,/D,/ | [D,D]/G,,/D,/G,/ [F,F]/G,,/D,/G,/ | %96
 [E,E]/G,,/D,/G,/ [E,E]/G,,/D,/G,/ | [G,,G,]/C,,/B,,/C/ [C,C]/C,,/B,,/C/ | %98
 [D,D]/C,,/B,,/C/ [C,C]/C,,/B,,/C/ | (A,/^A,/=A,/)G,/ F,/E,/D,/C,/ | %100
 (^A,,/=A,,/^A,,/)A,/ G,/F,/E,/D,/ | (^C,/D,/C,/)B,,/ A,,/G,,/!f!F,,/E,,/ | [D,A,D]2 z A, | %103
 (_B,/A,/G,/B,/) (G,/F,/E,/G,/) | (A,/G,/F,/A,/) (G,/F,/E,/G,/) | F,D, z F, | %106
 [G,,G,]/D,,/^G,,/D,/ [A,,A,]/D,,/G,,/D,/ | [B,,B,]/D,,/^G,,/D,/ [D,D]/D,,/G,,/D,/ | %108
 [G,,G,]/[D,,D,]/[G,,G,]/[_B,,_B,]/ [D,D]/[C,C]/[B,,B,]/[A,,A,]/ | %109
 [C,C]/C,,/B,,/C/ [C,C]/C,,/B,,/C/ | [D,D]/C,,/B,,/C/ [C,C]/C,,/B,,/C/ | %111
 [F,,F,]/[C,,C,]/[F,,F,]/[A,,A,]/ [_B,,_B,]/[C,C]/[B,,B,]/[A,,A,]/ | z/ D,/E,/^F,/ G,/A,/^A,/C/ | %113
 D/C/^A,/=A,/ G,/^F,/E,/D,/ | [_B,,_B,] [G,,G,]/[A,,A,]/ [G,,G,]/[F,,F,]/[E,,E,]/[D,,D,]/ | %115
 z z z .A,, | !arpeggio![A,EAe]2 z z | !tenuto![A,A] z z .[A,A] | !arpeggio![G,DGd]2 z2 | %119
 !tenuto![G,G] z z .[G,G] | !arpeggio![F,FAf]2 z .[Ee] | !tenuto![F,F] z z .[F,F] | %122
 !arpeggio![E,CEd]2 [^G,^G]!f![E,E] | [C,,A,,C,]3/2 z/ z .[E,A,E] | [D,,A,,D,]3/2 z/ z .[D,A,D] | %125
 .[C,,A,,C,] z .[D,,A,,D,] z | !tenuto![A,,E,A,] C,/B,,/ C,/E,/A,/E,/ | %127
 [E,,E,]/A,,,/^G,,/A,/ [=G,,G,]/A,,,/^G,,/A,/ | [F,,F,]/A,,,/^G,,/A,/ [=G,,G,]/A,,,/^G,,/A,/ | %129
 [A,,A,]/D,,/^G,,/D,/ [C,C]/D,,/G,,/D,/ | [B,,B,]/D,,/^G,,/D,/ [D,D]/D,,/G,,/D,/ | %131
 [C,C]/G,,/D,/G,/ [D,D]/G,,/D,/G,/ | [E,E]/G,,/D,/G,/ [E,E]/G,,/D,/G,/ | %133
 [C,C]/G,,/D,/G,/ [C,C]/C,,/B,,/C/ | [D,D]/C,,/B,,/C/ [C,C]/C,,/B,,/C/ | %135
 A,,/A,/F,/A,/ ^F,,/^F,/D,/F,/ | G,/D,/^A,,/G,,/ ^F,,/G,,/A,,/D,/ | G,,/G,/E,/G,/ E,,/D,/B,,/D,/ | %138
 D/A,/F,/D,/ ^C,/D,/F,/A,/ | F,,/F,/D,/F,/ E,,/F,/D,/F,/ | %140
 [E,,E,]/[E,,E,]/[D,,D,]/[D,,D,]/ [C,,C,]/[C,,C,]/[B,,,B,,]/[B,,,B,,]/ | %141
 [D,,D,]/[D,,D,]/[C,,C,]/[C,,C,]/ [_B,,,_B,,]/[B,,,B,,]/[A,,,A,,]/[A,,,A,,]/ | %142
 [B,,,B,,] z z!f! [^G,E] | E,/A,,/C,/E,/ A,2 | E,/A,,/D,/F,/ A,2 | %145
 A,,/G,,/F,,/E,,/ E,,/F,,/^G,,/A,,/ | E,E/D/ C/B,/A,/G,/ | A,/G/F/E/ D/C/B,/A,/ | [B,,B,][D,D] z2 | %149
 z4 | z D/C/ B,/A,/G,/F,/ | G,/F/E/D/ C/B,/A,/^G,/ | [A,,A,][C,C] z2 | z4 | z C/B,/ A,/G,/F,/E,/ | %155
 F,/E/D/C/ B,/A,/G,/G,/ | [B,,,B,,][E,,E,] [E,,E,][A,,,A,,] | [A,,A,][E,E] [D,D][B,,B,]- | %158
 [B,,B,][B,,B,] [C,C][A,,A,] | [E,B,E]2 (!arpeggio![E,B,EB]2 | !tenuto![E,E]) z z .[E,E] | %161
 !tenuto![B,,B,] z z .[B,,B,] | !tenuto![A,,A,] z z .[A,,A,] | !tenuto![F,,F,] z z .[F,,F,] | %164
 ([B,,B,]4 | B,/)C/D/E/ ^F/^G/A/B/ | [E,E][C,C] [D,D][B,,B,] | A,A/G/ F/E/D/C/ | %168
 B,/A,/^G,/A,/ B,/C/D/E/ | F/E/D/C/ B,/A,/^G,/A,/ | DA, A,^G, | !fermata![A,,A,]3 z |] %172
V:3
 x2 | [A,E]2 x [A,C] | [A,D]2 x [G,B,] | A,A,, E,E,, | A,,E, z E, | E, z E, z | ^G, z A, z | %7
 D,F,, E,,F,, | E,E, E,D, | C,E, C,A,, | D,D, D,C, | B,,D, B,,G,, | C,C, C,B,, | %13
 C,C, C,/B,,/A,,/G,,/ | ^F,,F,, E,,E,, | C,B,, C,[A,,A,] | x4 | z2 ^F,2 | ^D,3 A,, | G,C, A,,B,, | %20
 C,,3 C, | ^D,D, D,^F, | A,,A,, A,,C, | ^D,C, B,,B,, | x4 | E,4 | E,4 | B,,4 | C,4 | C,2 D,2 | %30
 D,2 C,2 | C,2 D,2 | x4 | C,4 | F,,4 | G,,4 | E,,4 | A,,4 | D,,4 | ^G,,4 | C,,4 | F,,4 | A,,4 | %43
 x4 | x4 | E,E, E,E, | x4 | D,D, D,D, | x4 | x4 | x4 | x4 | G,/C,/E,/G,/ x z | C/C,/F,/A,/ z2 | %54
 E,E, D,C, | x4 | G,C, G,C, | A,C, D,C, | A,G, F,D, | G,B, G,D, | C,E, F,C, | x4 | x4 | %63
 x C, B,,G,, | B,,D, E,B,, | x4 | x4 | x C, C,G,, | B,,D, E,B,, | %69
 G,,/A,,/B,,/C,/ B,,/A,,/G,,/F,,/ | A,,/G,,/^F,,/E,,/ A,,/B,,/C,/B,,/ | x4 | x4 | x4 | x4 | x4 | %76
 x4 | x4 | D,E, E,^C, | x4 | B,A, E,E, | A,,/B,,/C,/^D,/ D,/D,/D,/D,/ | x4 | %83
 x/ [C,E,]/ x/ [C,E,]/ x/ [C,E,]/ x/ [C,E,]/ | x4 | E,,2 z/ E,/E,/E,/ | E,,4 | %87
 ^F,,2 z/ B,,/B,,/B,,/ | A,,,4 | A,2 B,2 | C2 ^D2 | E2 G,2 | F,2 G,2 | A,2 C2 | B,2 D2 | D2 F2 | %96
 E2 E2 | G,2 C2 | D2 C2 | C2 F,2 | D,2 G,2 | E,3 A, | x4 | x4 | x4 | x4 | G,2 A,2 | B,2 D2 | x4 | %109
 C2 C2 | D2 C2 | x4 | _B,B, B,B, | _B,B, B,B, | x4 | x4 | x4 | x4 | x4 | x4 | x4 | x4 | x4 | x4 | %124
 x4 | x4 | x4 | E,2 G,2 | F,2 G,2 | A,2 C2 | B,2 D2 | C2 D2 | E2 E2 | C2 C2 | D2 C2 | x4 | %136
 _B,^A, ^F,B, | x4 | D,D, D,D, | x4 | x4 | x4 | x4 | [A,E]3 [A,E] | [A,E]3 [D,A,] | x4 | %146
 E,A, A,E, | E,C A,E, | x4 | x4 | G,F, E,D, | E,C A,E, | x4 | x4 | F,E, D,C, | D,B, G,D, | x4 | %157
 x4 | x4 | x4 | x4 | x4 | x4 | x4 | x4 | x4 | x4 | x4 | x4 | x4 | x4 | x4 |] %172
V:4
 x2 | x4 | x4 | x4 | x4 | x4 | x4 | x4 | x4 | x4 | x2 z/ D/D/D/ | D2 z2 | x2 z/ A,/A,/A,/ | %13
 A,2 z2 | x4 | x4 | x4 | x4 | x4 | x4 | x4 | x4 | x4 | x4 | x4 | x4 | x4 | x4 | x4 | x4 | x4 | x4 | %32
 x4 | x4 | x4 | x4 | x4 | x4 | x4 | x4 | x4 | x4 | x4 | x4 | x4 | x4 | x4 | x4 | x4 | x4 | x4 | %51
 x4 | x4 | x4 | x4 | x4 | x4 | x4 | x4 | x4 | x4 | x4 | x4 | x4 | x4 | x4 | x4 | x4 | x4 | x4 | %70
 x4 | x4 |!8va(! x4!8va)! | x4 | x4 | x4 | x4 | x4 | x4 | x4 | x4 | x4 | x4 | x4 | x4 | %85
 x e/e'/ e/ z/ z | x4 | x ^f/^f'/ f/ z/ z | x4 | x4 | x4 | x4 | x4 | x4 | x4 | x4 | x4 | x4 | x4 | %99
 x4 | x4 | x4 | x4 | x4 | x4 | x4 | x4 | x4 | x4 | x4 | x4 | x4 | x4 | x4 | x4 | x4 | x4 | x4 | %118
 x4 | x4 | x4 | x4 | x4 | x4 | x4 | x4 | x4 | x4 | x4 | x4 | x4 | x4 | x4 | x4 | x4 | x4 | x4 | %137
 x4 | x4 | x4 | x4 | x4 | x2 e/e'/b/e'/ | x2 a/c'/e'/a'/ | x2 a/c'/e'/a'/ | x4 | x4 | x4 | x4 | %149
 x4 | x4 | x4 | x4 | x4 | x4 | x4 | x4 | x4 | x4 | x4 | x4 | x4 | x4 | x4 | x4 | x4 | x4 | x4 | %168
 x4 | x4 | x4 | x4 |] %172

